packages/core/src/svgs/htr.svg

<svg width="24" height="24" viewBox="0 0 24 24" fill="none" xmlns="http://www.w3.org/2000/svg">
<g clip-path="url(#clip0_31_11606)">
<path d="M0 0H24V24H0V0Z" fill="url(#paint0_linear_31_11606)"/>
<path d="M5.14279 11.9999C5.14279 8.24136 8.24136 5.14279 11.9999 5.14279C15.7585 5.14279 18.8571 8.24136 18.8571 11.9999C18.8571 15.7585 15.7585 18.8571 11.9999 18.8571C8.24136 18.8571 5.14279 15.7585 5.14279 11.9999ZM11.9999 4.28564C10.9869 4.28564 9.98374 4.48518 9.0478 4.87286C8.11186 5.26054 7.26144 5.82877 6.54511 6.54511C5.82877 7.26144 5.26054 8.11186 4.87286 9.0478C4.48518 9.98374 4.28564 10.9869 4.28564 11.9999C4.28564 13.013 4.48518 14.0161 4.87286 14.9521C5.26054 15.888 5.82877 16.7384 6.54511 17.4548C7.26144 18.1711 8.11186 18.7393 9.0478 19.127C9.98374 19.5147 10.9869 19.7142 11.9999 19.7142C14.0459 19.7142 16.008 18.9015 17.4548 17.4548C18.9015 16.008 19.7142 14.0459 19.7142 11.9999C19.7142 9.95397 18.9015 7.99182 17.4548 6.54511C16.008 5.0984 14.0459 4.28564 11.9999 4.28564ZM13.2856 9.85707C12.1971 9.89564 11.2714 10.2256 10.7142 11.1428V6.85707H9.4285V13.2856H8.57136V14.5714H11.9999V13.2856H11.1428V12.7028C11.1428 11.8885 11.9528 10.9885 12.7885 10.9671C13.9242 10.9371 14.4814 11.6614 14.5714 12.7028V16.7142H15.8571V12.2571C15.8571 10.7142 14.5714 9.85707 13.2856 9.85707ZM8.57136 15.4285V16.7142H11.9999V15.4285H8.57136Z" fill="white"/>
</g>
<defs>
<linearGradient id="paint0_linear_31_11606" x1="4.46571" y1="4.16143" x2="29.2071" y2="32.58" gradientUnits="userSpaceOnUse">
<stop stop-color="#1A1E21"/>
<stop offset="1" stop-color="#06060A"/>
</linearGradient>
<clipPath id="clip0_31_11606">
<rect width="24" height="24" fill="white"/>
</clipPath>
</defs>
</svg>

<svg xmlns="http://www.w3.org/2000/svg" width="24" height="24" fill="none" viewBox="0 0 24 24"><g clip-path="url(#a)"><path fill="url(#b)" d="M0 0h24v24H0z"/><path fill="#fff" d="M5.143 12C5.143 8.24 8.24 5.143 12 5.143c3.758 0 6.857 3.098 6.857 6.857 0 3.758-3.098 6.857-6.857 6.857S5.143 15.76 5.143 12M12 4.286a7.714 7.714 0 1 0 0 15.428 7.714 7.714 0 0 0 0-15.428m1.286 5.571c-1.089.039-2.015.369-2.572 1.286V6.857H9.428v6.429h-.857v1.285H12v-1.285h-.857v-.583c0-.814.81-1.714 1.646-1.736 1.135-.03 1.692.694 1.782 1.736v4.011h1.286v-4.457c0-1.543-1.286-2.4-2.571-2.4M8.57 15.43v1.285H12V15.43z"/></g><defs><linearGradient id="b" x1="4.466" x2="29.207" y1="4.161" y2="32.58" gradientUnits="userSpaceOnUse"><stop stop-color="#1A1E21"/><stop offset="1" stop-color="#06060A"/></linearGradient><clipPath id="a"><path fill="#fff" d="M0 0h24v24H0z"/></clipPath></defs></svg>
